static/img/menus/ico-air-face-link.svg

<svg width="17" height="16" viewBox="0 0 17 16" fill="none" xmlns="http://www.w3.org/2000/svg">
<g clip-path="url(#clip0_99_39)">
<path d="M14.1667 8C14.1667 11.615 11.3125 14.5455 7.79167 14.5455C4.27086 14.5455 1.41667 11.615 1.41667 8C1.41667 4.38505 4.27086 1.45455 7.79167 1.45455C8.68375 1.45455 9.53311 1.64269 10.304 1.98244" stroke="currentColor" stroke-linecap="round"/>
<path d="M14.1667 1.45455V5.81818" stroke="currentColor" stroke-linecap="round" stroke-linejoin="round"/>
<path d="M16.2917 3.63636H12.0417" stroke="currentColor" stroke-linecap="round" stroke-linejoin="round"/>
<path d="M4.95833 9.45454C5.65436 10.3473 6.66586 10.9091 7.79166 10.9091C8.91749 10.9091 9.92899 10.3473 10.625 9.45454" stroke="currentColor" stroke-linecap="round"/>
<path d="M5.66667 6.54545V7.27273" stroke="currentColor" stroke-linecap="round"/>
<path d="M9.91667 6.54545V7.27273" stroke="currentColor" stroke-linecap="round"/>
</g>
<defs>
<clipPath id="clip0_99_39">
<rect width="17" height="16" fill="white"/>
</clipPath>
</defs>
</svg>

<svg xmlns="http://www.w3.org/2000/svg" width="17" height="16" fill="none" viewBox="0 0 17 16"><g stroke="currentColor" stroke-linecap="round" clip-path="url(#a)"><path d="M14.167 8c0 3.615-2.854 6.546-6.375 6.546S1.417 11.615 1.417 8 4.27 1.455 7.792 1.455c.892 0 1.741.188 2.512.527"/><path stroke-linejoin="round" d="M14.167 1.455v4.363M16.292 3.636h-4.25"/><path d="M4.958 9.455c.696.892 1.708 1.454 2.834 1.454 1.125 0 2.137-.562 2.833-1.454M5.667 6.545v.728M9.917 6.545v.728"/></g><defs><clipPath id="a"><path fill="#fff" d="M0 0h17v16H0z"/></clipPath></defs></svg>
